src/svg/20/user-happy-20.svg

<svg width="20" height="20" viewBox="0 0 20 20" fill="none" xmlns="http://www.w3.org/2000/svg">
    <path fill-rule="evenodd" clip-rule="evenodd"
        d="M10.8379 7.82327C9.9534 7.82327 9.31785 7.7677 8.56394 7.54168C7.38762 7.18902 6.44699 6.49453 5.888 5.38217L7.66841 4.48191C8.18512 5.51012 9.22964 5.82327 10.8379 5.82327H17.9787L18.2388 6.42582C18.7219 7.5447 18.9745 8.7555 18.9745 10C18.9745 14.9706 14.9575 19 10.0023 19C5.04703 19 1.03003 14.9706 1.03003 10C1.03003 5.02944 5.04703 1 10.0023 1C12.2962 1 14.4573 1.86839 16.105 3.40252L14.7485 4.86834C13.4661 3.67428 11.7881 3 10.0023 3C6.14819 3 3.02386 6.13401 3.02386 10C3.02386 13.866 6.14819 17 10.0023 17C13.8563 17 16.9806 13.866 16.9806 10C16.9806 9.25042 16.8635 8.5184 16.637 7.82327H10.8379Z"
        fill="#FF0000" />
    <path fill-rule="evenodd" clip-rule="evenodd"
        d="M14.9151 10.5021H13.4197C13.4197 10.1793 13.1448 9.91016 12.7968 9.91016C12.4487 9.91016 12.1738 10.1793 12.1738 10.5021H10.6785C10.6785 9.34264 11.6309 8.41016 12.7968 8.41016C13.9627 8.41016 14.9151 9.34264 14.9151 10.5021Z"
        fill="#FF0000" />
    <path fill-rule="evenodd" clip-rule="evenodd"
        d="M9.43068 10.5021H7.93531C7.93531 10.1793 7.66041 9.91016 7.31238 9.91016C6.96436 9.91016 6.68946 10.1793 6.68946 10.5021H5.19409C5.19409 9.34264 6.14648 8.41016 7.31238 8.41016C8.47829 8.41016 9.43068 9.34264 9.43068 10.5021Z"
        fill="#FF0000" />
    <path fill-rule="evenodd" clip-rule="evenodd"
        d="M5.96362 14.0863L7.3578 12.6565C8.06687 13.3522 9.02735 13.7506 10.0564 13.7506C11.0875 13.7506 12.0498 13.3506 12.7592 12.6523L14.1556 14.0799C13.0759 15.1426 11.6133 15.7506 10.0564 15.7506C8.50265 15.7506 7.04279 15.1451 5.96362 14.0863Z"
        fill="#FF0000" />
</svg>

<?xml version="1.0" encoding="utf-8"?>
<!-- Generator: Adobe Illustrator 28.2.0, SVG Export Plug-In . SVG Version: 6.00 Build 0)  -->
<svg version="1.1" xmlns="http://www.w3.org/2000/svg"
	xmlns:xlink="http://www.w3.org/1999/xlink" x="0px" y="0px"
	width="20px" height="20px" viewBox="0 0 20 20" style="enable-background:new 0 0 20 20;"
	xml:space="preserve">
<style type="text/css">
		.st0{fill-rule:evenodd;clip-rule:evenodd;fill:#FF0000;}
</style>
<path class="st0" d="M10.8,7.8c-0.9,0-1.5-0.1-2.3-0.3c-1.2-0.4-2.1-1-2.7-2.2l1.8-0.9c0.5,1,1.6,1.3,3.2,1.3h7.1l0.3,0.6
	c0.5,1.1,0.7,2.3,0.7,3.6c0,5-4,9-9,9c-5,0-9-4-9-9c0-5,4-9,9-9c2.3,0,4.5,0.9,6.1,2.4l-1.4,1.5C13.4,3.7,11.8,3,10,3
	c-3.9,0-7,3.1-7,7s3.1,7,7,7c3.9,0,7-3.1,7-7c0-0.7-0.1-1.5-0.3-2.2H10.8z"/>
<path class="st0" d="M14.9,10.5h-1.5c0-0.3-0.3-0.6-0.6-0.6c-0.3,0-0.6,0.3-0.6,0.6h-1.5c0-1.2,1-2.1,2.1-2.1S14.9,9.3,14.9,10.5z"
	/>
<path class="st0" d="M9.4,10.5H7.9c0-0.3-0.3-0.6-0.6-0.6c-0.3,0-0.6,0.3-0.6,0.6H5.2c0-1.2,1-2.1,2.1-2.1C8.4,8.4,9.4,9.3,9.4,10.5
	z"/>
<path class="st0" d="M5.9,14.1l1.4-1.4C8,13.4,9,13.8,10,13.8c1,0,2-0.4,2.7-1.1l1.4,1.4c-1.1,1.1-2.5,1.7-4.1,1.7
	C8.5,15.8,7,15.1,5.9,14.1z"/>
</svg>
